X: 20551
Q: "Moderato"
M: 6/8
L: 1/8
K: D
(Ad)d {e}d>cd | (fe)e e2g | {g}f>ed f<aA | A>Bc d2A |\
(Ad)d {e}d>cd | (fe)e e2{g}a | f>ed (f<a)A | A>Bc "_Fine."d2 |]
a |\
a>fd dfa | {b}a>gf g2b | a>fd dfa | {b}agf eef |\


